X:43
T:Lady Ann Hope's (strathspey)
K:G
M:C
L:1/8
V:1
c | B/c/d/B/ G<B E<GD<G | TF>A {c}BA/G/ FDDc | B/c/d/B/ GB EGD>g | e/f/g/e/ f/g/a/f/ gGG :|
d | Tg>bgd Tg>bgd | eaTa>g fdde/f/ | Tg>bdB cedg | egfa gGGd | 
    Tg>bgd Tg>bgd | eaTa>g fd dg/a/ | b>ga>f g>e d>c | BgAf gGG |]
V:2 clef=bass middle=d
L:1/4
z/ | gBcB | AGdD | gGcB |cdgG/ :|
z/ | gGgB | c^cdD | gGcB | cdgG | 
     gGgB | c^cdD | gdce | dDGG/ |]